X:324
T: ALLES LIEBT UND PAART SICH WIEDER
N: B0381
O: Europa, Mitteleuropa, Deutschland
R: Liebes - Lied, Liebes - Lust
M: 2/4
L: 1/16
K: G
DD | G3GG3G | GFF2z2
DF | A3AAcBA | AGG2z2
DD | B3AGFGB | B2A2z2
cA | GFEDD2EF | AGG4
cA | GFEDD2EF | AGG4
BB | BAcAAGGF | d6
cB | BAcAAGGF | G4z2

